X: 1
T: The Humours Of Castlefin
R: reel
M: 4/4
L: 1/8
K: Gmaj
d^c[|BE E2 BEGB|AD D2 FGAd|BE E2 B2 AF|GBAF EFGA|
BE E2 BEGB|AD D2 FGAd|BE E2 B2 AF|GBAF EFGA|
B2 eB egfe|defg afed|!Beed efgb|agfa geed|
B2 eB egfe|defg afdf|efga bagf|egfd e2|]


Tune 2271	Setting 15640

